X:67
T:Duke of York Quick Step,The. JGi.067
O:Tealby,Lincolnshire
M:2/4
L:1/8
Q:1/4=120
S:Joshua Gibbons MS,1823,Tealby,Lincs.
R:quick step
Z:VMP/R.Greig, 2009
K:C
cc d/B/d/B/|cc d/B/d/B/|ccdd|ee f/d/B/G/|\
cc d/B/d/B/|cc d/B/d/B/|ccdd|e/f/d/B/ c2:|\
|:e gg c’|a ff d|g/e/g/e/ cc|d/B/d/B/G2|\
e gg c’|a ff d|g/e/g/e/ cc|d/f/d/B/ c2:|\
|:G>F EG|AA F2|dd {c}BA/G/|c/e/g/e/ cB|\
G>FEG|AAF2|d fd {c}B>AG|cc c2:|

